floristman/img/sprite/clock.svg

<svg width="15" height="15" viewBox="0 0 15 15" fill="none" xmlns="http://www.w3.org/2000/svg">
<path d="M7.49961 0.599976C3.69219 0.599976 0.599609 3.69255 0.599609 7.49998C0.599609 11.3074 3.69219 14.4 7.49961 14.4C11.307 14.4 14.3996 11.3074 14.3996 7.49998C14.3996 3.69255 11.307 0.599976 7.49961 0.599976ZM7.49961 1.19998C10.9824 1.19998 13.7996 4.01716 13.7996 7.49998C13.7996 10.9828 10.9824 13.8 7.49961 13.8C4.0168 13.8 1.19961 10.9828 1.19961 7.49998C1.19961 4.01716 4.0168 1.19998 7.49961 1.19998ZM7.49492 2.09587C7.32969 2.09822 7.19727 2.23474 7.19961 2.39998V6.65212C6.84043 6.77927 6.59961 7.11853 6.59961 7.49998C6.59961 7.63416 6.63008 7.76658 6.68809 7.88728L4.8875 9.68787C4.80898 9.76287 4.77734 9.87478 4.80488 9.98025C4.83242 10.0851 4.91445 10.1672 5.01934 10.1947C5.1248 10.2222 5.23672 10.1906 5.31172 10.1121L7.11231 8.3115C7.23301 8.36951 7.36543 8.39998 7.49961 8.39998C7.99648 8.39998 8.39961 7.99685 8.39961 7.49998C8.39902 7.11912 8.15879 6.77986 7.79961 6.65271V2.39998C7.80078 2.31912 7.76914 2.2406 7.71172 2.18376C7.6543 2.12634 7.57578 2.0947 7.49492 2.09587Z" fill="#EB8677"/>
</svg>

<svg width="15" height="15" fill="none" xmlns="http://www.w3.org/2000/svg"><path d="M7.5.6A6.904 6.904 0 0 0 .6 7.5c0 3.807 3.092 6.9 6.9 6.9 3.807 0 6.9-3.093 6.9-6.9 0-3.807-3.093-6.9-6.9-6.9zm0 .6c3.482 0 6.3 2.817 6.3 6.3 0 3.483-2.818 6.3-6.3 6.3a6.296 6.296 0 0 1-6.3-6.3c0-3.483 2.817-6.3 6.3-6.3zm-.005.896A.3.3 0 0 0 7.2 2.4v4.252a.9.9 0 0 0-.512 1.235l-1.8 1.8a.3.3 0 1 0 .424.425l1.8-1.8A.9.9 0 0 0 7.8 6.653V2.4a.299.299 0 0 0-.304-.304z" fill="#EB8677"/></svg>
